X: 629
T: Ehl-i Aşkâ Bir Belâ Zindânıdır
C: ?
O: Turkey
F: http://compmusic.upf.edu/node/140
N: suzinak--mersiye--devrirevan--ehl-i_aska--
N: makam= suzinak
N: form= mersiye
N: usul= devrirevan = 14/8
M: 14/8
L: 1/16
K: C _1/4B _7/8e ^f 
Q: 1/4=120
%%MIDI tuningsystem comma53
d4 f2_2/4e3dd3cc4de dc=B_2/4A G2z2  | \
w:  Eh li  aş *  kâ *  *  bir  *  be *  lâ  *  zin  | 
c2=B2 c2d4g3ff3_2/4eed d4 z4  | 
w:  dâ *  nı dır  bû  *  mâ *  si *  vâ    | 
d4 f2_2/4e3dd3cc4de dc=B_2/4A G2z2  | \
w:  Eh li  aş *  kâ *  *  bir  *  be *  lâ  *  zin  | 
c2=B2 c2d4g3ff3_2/4eed d4 z4  | 
w:  dâ *  nı dır  bû  *  mâ *  si *  vâ    | 
d4 f2_2/4e3dd3cc4c=B B3_2/4A G4  | \
w:  Mek ke den  *  Kû *  fe ye  *  azm *  et  | 
=B3_2/4A G2c3_2/4ed2 c2B3AAG G4 z4  | 
w:  tî  *  Hü seyn  *  Âl *  i  *  a *  bâ    | 
d4 f2_2/4e3dd3cc4c=B B3_2/4A G4  | \
w:  Mek ke den  *  Kû *  fe ye  *  azm *  et  | 
=B3_2/4A G2c3_2/4ed2 c2B3AAG G4 z4  | 
w:  tî  *  Hü seyn  *  Âl *  i  *  a *  bâ    | 
g4 g2ag gfg2 a2_2/4b2 a2g2 fgf_2/4e d4  | \
w:  Bu  ka zâ *  *  *  ya  *  hem  *  rı zâ  *  *  *  ver  | 
d4 _2/4e2f3ed3cfg a_2/4bag g4 z4  | 
w:  miş ti  nû *  rî  *  Fâ *  *  *  ti *  me    | 
g4 g2ag gfg2 a2_2/4b2 a2g2 fgf_2/4e d4  | \
w:  Bu  ka zâ *  *  *  ya  *  hem  *  rı zâ  *  *  *  ver  | 
d4 _2/4e2f3ed3cfg a_2/4bag g4 z4  | 
w:  miş ti  nû *  rî  *  Fâ *  *  *  ti *  me    | 
d4 f2_2/4e3dd3cc4c=B B3_2/4A G4  | \
w:  Mek ke den  *  Kû *  fe ye  *  azm *  et  | 
=B3_2/4A G2c3_2/4ed2 c2B3AAG G4 z4  | 
w:  tî  *  Hü seyn  *  Âl *  i  *  a *  bâ    | 
d4 f2_2/4e3dd3cc4c=B B3_2/4A G4  | \
w:  Mek ke den  *  Kû *  fe ye  *  azm *  et  | 
=B3_2/4A G2c3_2/4ed2 c2B3AAG G4 z4  | 
w:  tî  *  Hü seyn  *  Âl *  i  *  a *  bâ    | 
|


